X: 20
T: Dusty Windowsills
C: Johnny Harling
Z: chansherly212
S: https://thesession.org/tunes/29#setting53919
R: jig
M: 6/8
L: 1/8
K: Ador
|:"Am"A2B cBA|"Am"eAB cBA|"G"G3 EGG|"G"DGG EFG|
"F"A2B cBA|e2d efg|"G"age dBG|"Am"ABG A3:|
|:"Am"a3 age|"G"def g3|"G"gag "C"gfe|"G"dBA ~G3|
"Em"EGG "G"DGG|"Em" EFG ABc|"G"Bed BAG|"Am" ABG A3:|
|:"Am"A2A gAf|"Am"A2A gAf|"G"G2G eGd|"G"G2G "Em"edB|
"F"A2A gAf|A2 d "Em" efg|"G"age dBG|"Am"ABG A3:|

